X:1
T:Those that do place their confidence
T:John Alcock jr. (of Walsall)
T:Text: William Whittingham, on Ps. 125.
T:Edition by Edmund Gooch released into the public domain, October 2010. As such, it may be freely copied and performed.
T:Those that do place their confidence
T:Psalm (the Latter) 125
C:John Alcock jr.
C:(of Walsall)
Z:Text: William Whittingham,
Z:on Ps. 125.
%%score [ 1 2 3 4 ]
L:1/8
M:3/2
K:G
V:1 treble nm="SOPRANO" snm="S."
V:2 treble nm="ALTO" snm="A."
V:3 treble-8 transpose=-12 nm="TENOR" snm="T."
V:4 bass nm="BASS" snm="B."
V:1
"^Brisk" d4 | (G3 A B3 c) d4 | e8 e4 | (d4 c2 B2) (A3 d) | (c4 B4) G4 | d8 A4 | (e3 d e4) G4 | %7
w: And|as _ _ _ a-|bout Je-|ru- * * sa- *|lem _ The|migh- ty|hills _ _ do|
w: Those|that _ _ _ do|place their|con- * * fi- *|dence _ Up-|on the|Lord _ _ our|
w: Their|faith _ _ _ is|sure still|to _ _ en- *|dure, _ Ground-|ed on|Christ _ _ the|
 (F2 A2 d4) T^c4 | d8 A4 | (A3 B c4) B4 | (c3 d e4) G4 | (G3 A B4) A4 | (B3 c d4) d4 | %13
w: it _ _ com-|pass, So|that _ _ no|foes _ _ can|come _ _ to|them _ _ To|
w: God _ _ on-|ly, And|flee _ _ to|him _ _ for|their _ _ de-|fence _ _ In|
w: cor- * * ner-|stone; Mov’d|with _ _ no|ill, _ _ but|stand- * * eth|still _ _ Stead-|
 (e3 d c4) e4 | (d4 c2 B2) (A2 G2) | (E3 A G4) TF4 | !fermata!G8 |] %17
w: hurt _ _ that|town _ _ in _|a- * * ny|case:|
w: all _ _ their|need _ _ and _|mi- * * se-|ry:|
w: fast _ _ like|to _ _ the _|mount _ _ Si-|on.|
V:2
 G4 | (G6 F2) G4 | G8 G4 | G8 F4 | G8 D4 | (A3 G A4) F4 | A8 E4 | F8 TE4 | F8 =F4 | (E3 ^G A4) G4 | %10
w: And|as _ a-|bout Je-|ru- sa-|lem The|migh- * * ty|hills do|it com-|pass, So|that _ _ no|
w: Those|that _ do|place their|con- fi-|dence Up-|on _ _ the|Lord our|God on-|ly, And|flee _ _ to|
w: Their|faith _ is|sure still|to en-|dure, Ground-|ed _ _ on|Christ the|cor- ner-|stone; Mov’d|with _ _ no|
 A8 E4 | (D3 F G4) F4 | G8 G4 | (G3 =F E4) G4 | G8 B,4 | (E4 D4) D4 | !fermata!D8 |] %17
w: foes can|come _ _ to|them To|hurt _ _ that|town in|a- * ny|case:|
w: him for|their _ _ de-|fence In|all _ _ their|need and|mi- * se-|ry:|
w: ill, but|stand- * * eth|still Stead-|fast _ _ like|to the|mount _ Si-|on.|
V:3
 B4 | (B3 c d3 c) B4 | e8 c4 | (d4 e2 d2) c4 | d8 B4 | d8 d4 | A8 ^c4 | d4 A8 | A8 d4 | %9
w: And|as _ _ _ a-|bout Je-|ru- * * sa-|lem The|migh- ty|hills do|it com-|pass, So|
w: Those|that _ _ _ do|place their|con- * * fi-|dence Up-|on the|Lord our|God on-|ly, And|
w: Their|faith _ _ _ is|sure still|to _ _ en-|dure, Ground-|ed on|Christ the|cor- ner-|stone; Mov’d|
 (A3 d e4) e4 | (e3 d c4) c4 | (G3 c d4) d4 | (d3 c B4) B4 | c8 c4 | G4 B8 | (c4 B4) TA4 | %16
w: that _ _ no|foes _ _ can|come _ _ to|them _ _ To|hurt that|town in|a- * ny|
w: flee _ _ to|him _ _ for|their _ _ de-|fence _ _ In|all their|need and|mi- * se-|
w: with _ _ no|ill, _ _ but|stand- * * eth|still _ _ Stead-|fast like|to the|mount _ Si-|
 !fermata!B8 |] %17
w: case:|
w: ry:|
w: on.|
V:4
 G,4 | (G,6 A,2) B,4 | C8 C,4 | (B,,4 C,4) D,4 | G,,8 G,4 | (F,3 E, F,4) D,4 | %6
w: And|as _ a-|bout Je-|ru- * sa-|lem The|migh- * * ty|
w: Those|that _ do|place their|con- * fi-|dence Up-|on _ _ the|
w: Their|faith _ is|sure still|to _ en-|dure, Ground-|ed _ _ on|
 (^C,3 B,, C,4) A,,4 | (D,4 F,4) A,4 | D,8 D4 | (C3 B, A,4) E,4 | A,8 C4 | %11
w: hills _ _ do|it _ com-|pass, So|that _ _ no|foes can|
w: Lord _ _ our|God _ on-|ly, And|flee _ _ to|him for|
w: Christ _ _ the|cor- * ner-|stone; Mov’d|with _ _ no|ill, but|
"^Emendations: Clefs in the source are treble, alto, tenor and bass. The first verse only of the text is given in the source,where the vocal bass part is also figured: figuring has been omitted to facilitate the underlaying of three other versesselected from the text. The following notes are printed as small ornamental notes in the source, and have been writtenout in full in the present edition: bar 4, beat 1, soprano C; bar 9, beat 1, alto G# and tenor D; bar 11, beat 1, alto F# andtenor C." (B,3 A, G,4) D,4 | %12
w: come _ _ to|
w: their _ _ de-|
w: stand- * * eth|
 G,8 G,4 | C,8 C4 | (B,4 G,4) E,4 | (C,4 D,4) D,4 | !fermata!G,,8 |] %17
w: them To|hurt that|town _ in|a- * ny|case:|
w: fence In|all their|need _ and|mi- * se-|ry:|
w: still Stead-|fast like|to _ the|mount _ Si-|on.|

